X:1
T:I Will Never Cease to Love Him
T:Charles Hutchinson Gabriel, 1890
T:I Will Never Cease to Love Him
T:Public Domain
T:Public Domain
C:Charles Hutchinson Gabriel, 1890
Z:Public Domain
%%score ( 1 2 ) 3
L:1/8
M:2/4
K:E
V:1 treble 
V:2 treble 
V:3 bass 
V:1
 E | [EG][EG] [EG][EA] | [EG][DF] [DF]B, | [B,F]/[B,F]/[EG] [FA][Ac] | [Ac] [GB]2 E | %5
w: 1.~For|the Lord has done|for me, I nev-|will cease to love Him;|And for His|
w: 2.~He|me strength for ev-|ery day, I nev-|will cease to love Him;|He leads and|
w: 3.~Though|the world His love|ne- glect, I nev-|will cease to love Him;|I could not|
w: 4.~While|my jour- ney here|be- low, I nev-|will cease to love Him;|And when to|
 [EG][EG] [EG][EA] | [EG][DF] [DF]B, | [B,F]/[B,F]/[FA] [EG][DF] | [B,F] [B,E]2 ||"^Refrain" [GB] | %10
w: so rich and free,|I nev- er will|to love Him. * *|||
w: me all the way,|I nev- er will|to love Him. * *|||
w: a Friend re- ject,|I nev- er will|to love Him. * *|||
w: bright world I go,|I nev- er will|to love Him. * *|||
 [Ge]/[Ge]/[Ge] [Ge][GB] | [Ac](G G)[EG] | [EG](D D)[Ac] | [Ac] [GB]2 [GB] | %14
w: ||||
w: ||||
w: ||||
w: ||||
 [Ge]/[Ge]/[Ge] [Ge][GB] | [Ac](G G)[EG] | [EG]E [EG][DF] | E3 |] %18
w: ||||
w: ||||
w: ||||
w: ||||
V:2
 E | x4 | x3 B, | x4 | x3 E | x4 | x3 B, | x4 | x3 || x | x4 | x B2 x | x F2 x | x4 | x4 | x B2 x | %16
w: all||er||grace||cease||||||||||
w: gives||er||guides||cease||||||||||
w: all||er||such||cease||||||||||
w: on||er||that||cease||||||||||
 x E x2 | E3 |] %18
w: ||
w: ||
w: ||
w: ||
V:3
 [E,G,] | [E,B,][E,B,] [E,B,][E,C] | [B,,B,][B,,A,] [B,,A,][B,,A,] | %3
w: ~|~ ~ ~ ~|~ ~ ~ ~|
 [B,,A,]/[B,,A,]/[B,,B,] [B,,D][B,,D] | [E,E] [E,E]2 [E,G,] | [E,B,][E,B,] [E,B,][E,C] | %6
w: ~ ~ ~ ~ ~|~ ~ ~|~ ~ ~ ~|
 [B,,B,][B,,A,] [B,,A,][B,,A,] | [B,,A,]/[B,,A,]/[B,,B,] [B,,B,][B,,A,] | [E,A,] [E,G,]2 || [E,E] | %10
w: ~ ~ ~ ~|~ ~ ~ ~ ~|~ ~|I|
 [E,B,]/[E,B,]/[E,B,] [E,B,][E,E] | [E,E]([E,E] [E,E])[E,B,] | [B,,B,]([B,,B,] [B,,B,])[B,,D] | %13
w: nev- er will cease to|love Him, * My|Sav- ior, * my|
 [E,E] [E,E]2 [E,E] | [E,B,]/[E,B,]/[E,B,] [E,B,][E,E] | [E,E]([E,E] [E,E])[E,B,] | %16
w: Sav- ior; I|nev- er will cease to|love Him, * He’s|
 [B,,B,][B,,G,] [B,,B,][B,,A,] | [E,G,]3 |] %18
w: done so much for|me.|

